X: 1
T: the Grassmarket Reel
C: James Gray
R: reel
B: Alex & James Gray "Tweeddale Collection" v.4 p.5, p.39 #3,6
Z: 2017 John Chambers <jc:trillian.mit.edu>
M: C|
L: 1/8
K: D
"(A7)"FE |\
"D"DAAF "/f#"A2FA | "G"GFED "A"C2A,2 |\
"G"B,2G,B, "D/f#"A,B,DF | "Em"EDCB, "A7"A,B,CE |
"D"DAAF "/f#"A2FA | "G"GFED "A"C2A,2 |\
"G"B,2G,B, "A7"A,B,CE | "D"D2D2 D2 :|
|: "(F#)"C2 |\
"Bm"B,BBc dcBA | "G"BAGF "D/f#"GFED |\
"Em"EBBc "G"d4 | "A"cBAc "Bm"B3c |
"G"dcBA "D/f#"BAGF | "Em"GFED "A"C2A,2 |\
"D"DAAF "G"GFED | "A"CA,B,C "D"D2 :|
